img/help-04.svg

<svg width="70" height="70" viewBox="0 0 70 70" fill="none" xmlns="http://www.w3.org/2000/svg">
<g clip-path="url(#clip0_420_16477)">
<path d="M15.9092 9.545C16.7878 9.545 17.5001 8.83275 17.5001 7.95414C17.5001 7.07553 16.7878 6.36328 15.9092 6.36328C15.0306 6.36328 14.3184 7.07553 14.3184 7.95414C14.3184 8.83275 15.0306 9.545 15.9092 9.545Z" fill="#4054F9"/>
<path d="M36.5908 4.77246H33.4089C30.7044 4.77246 28.6362 6.84061 28.6362 9.54518V14.3179C28.6362 17.8179 31.4998 20.6815 34.9998 20.6815C38.4998 20.6815 41.3634 17.8179 41.3634 14.3179V9.54518C41.3635 6.84061 39.2954 4.77246 36.5908 4.77246ZM38.1818 14.3179C38.1818 16.0679 36.7499 17.4997 34.9999 17.4997C33.2499 17.4997 31.8181 16.0679 31.8181 14.3179V9.54518C31.8181 8.59061 32.4545 7.95432 33.4089 7.95432H36.5908C37.5454 7.95432 38.1817 8.59074 38.1817 9.54518V14.3179H38.1818Z" fill="#4054F9"/>
<path d="M39.7727 23.8633H30.2273C25.7727 23.8633 22.2727 27.3633 22.2727 31.8179C22.2727 32.7724 22.9091 33.4087 23.8636 33.4087C24.818 33.4087 25.4544 32.7723 25.4544 31.8179C25.4544 29.1133 27.5226 27.0451 30.2271 27.0451H39.7726C42.4771 27.0451 44.5453 29.1133 44.5453 31.8179C44.5453 32.7724 45.1817 33.4087 46.1361 33.4087C47.0907 33.4087 47.727 32.7723 47.727 31.8179C47.7273 27.3633 44.2273 23.8633 39.7727 23.8633Z" fill="#4054F9"/>
<path d="M60.4546 0H9.54545C8.59088 0 7.95459 0.636426 7.95459 1.59086V36.5909C7.95459 37.5454 8.59102 38.1817 9.54545 38.1817H60.4546C61.4091 38.1817 62.0454 37.5453 62.0454 36.5909V1.59086C62.0454 0.636426 61.4091 0 60.4546 0ZM58.8636 35H11.1364V3.18186H58.8637V35H58.8636Z" fill="#4054F9"/>
<path d="M36.5908 41.3633H33.4089C30.7044 41.3633 28.6362 43.4314 28.6362 46.136V50.9087C28.6362 54.4087 31.4998 57.2723 34.9998 57.2723C38.4998 57.2723 41.3634 54.4087 41.3634 50.9087V46.136C41.3635 43.4316 39.2954 41.3633 36.5908 41.3633ZM38.1818 50.9088C38.1818 52.6588 36.7499 54.0907 34.9999 54.0907C33.2499 54.0907 31.8181 52.6588 31.8181 50.9088V46.1361C31.8181 45.1816 32.4545 44.5453 33.4089 44.5453H36.5908C37.5454 44.5453 38.1817 45.1817 38.1817 46.1361V50.9088H38.1818Z" fill="#4054F9"/>
<path d="M38.1819 60.4541H31.8183C27.3638 60.4541 23.8638 63.9541 23.8638 68.4087C23.8638 69.3632 24.5002 69.9995 25.4546 69.9995H38.1819C39.1365 69.9995 39.7728 69.3631 39.7728 68.4087C39.7728 67.4542 39.1363 66.8178 38.1819 66.8178H27.3638C28.0002 64.9087 29.7502 63.636 31.8183 63.636H38.1819C40.8865 63.636 42.9546 65.7041 42.9546 68.4087C42.9546 69.3632 43.5911 69.9995 44.5455 69.9995C45.4999 69.9995 46.1363 69.3631 46.1363 68.4087C46.1365 63.9541 42.6365 60.4541 38.1819 60.4541Z" fill="#4054F9"/>
<path d="M60.4546 41.3633H57.2727C54.5681 41.3633 52.5 43.4314 52.5 46.136V50.9087C52.5 54.4087 55.3636 57.2723 58.8636 57.2723C62.3636 57.2723 65.2271 54.4087 65.2271 50.9087V46.136C65.2273 43.4316 63.1591 41.3633 60.4546 41.3633ZM62.0454 50.9088C62.0454 52.6588 60.6136 54.0907 58.8636 54.0907C57.1136 54.0907 55.6817 52.6588 55.6817 50.9088V46.1361C55.6817 45.1816 56.3181 44.5453 57.2726 44.5453H60.4544C61.409 44.5453 62.0453 45.1817 62.0453 46.1361V50.9088H62.0454Z" fill="#4054F9"/>
<path d="M62.0454 60.4541H55.6819C51.2273 60.4541 47.7273 63.9541 47.7273 68.4087C47.7273 69.3632 48.3637 69.9995 49.3182 69.9995H62.0454C63 69.9995 63.6363 69.3631 63.6363 68.4087C63.6363 67.4542 62.9999 66.8178 62.0454 66.8178H51.2273C51.8637 64.9087 53.6137 63.636 55.6819 63.636H62.0454C64.75 63.636 66.8181 65.7041 66.8181 68.4087C66.8181 69.3632 67.4546 69.9995 68.409 69.9995C69.3634 69.9995 70 69.3631 70 68.4087C70 63.9541 66.5 60.4541 62.0454 60.4541Z" fill="#4054F9"/>
<path d="M14.3182 41.3633H11.1365C8.43191 41.3633 6.36377 43.4314 6.36377 46.136V50.9087C6.36377 54.4087 9.22734 57.2723 12.7273 57.2723C16.2273 57.2723 19.0909 54.4087 19.0909 50.9087V46.136C19.0909 43.4316 17.0228 41.3633 14.3182 41.3633ZM15.9092 50.9088C15.9092 52.6588 14.4773 54.0907 12.7273 54.0907C10.9773 54.0907 9.54549 52.6588 9.54549 50.9088V46.1361C9.54549 45.1816 10.1819 44.5453 11.1363 44.5453H14.3182C15.2728 44.5453 15.9091 45.1817 15.9091 46.1361V50.9088H15.9092Z" fill="#4054F9"/>
<path d="M14.3181 60.4541H7.95457C3.5 60.4541 0 63.9541 0 68.4087C0 69.3631 0.636426 69.9995 1.59086 69.9995H14.3181C15.2727 69.9995 15.909 69.3631 15.909 68.4087C15.909 67.4542 15.2726 66.8178 14.3181 66.8178H3.5C4.13643 64.9087 5.88643 63.636 7.95457 63.636H14.3181C17.0227 63.636 19.0909 65.7041 19.0909 68.4087C19.0909 69.3632 19.7273 69.9995 20.6817 69.9995C21.6363 69.9995 22.2726 69.3631 22.2726 68.4087C22.2727 63.9541 18.7727 60.4541 14.3181 60.4541Z" fill="#4054F9"/>
</g>
<defs>
<clipPath id="clip0_420_16477">
<rect width="70" height="70" fill="white"/>
</clipPath>
</defs>
</svg>

<svg width="70" height="70" fill="none" xmlns="http://www.w3.org/2000/svg"><g clip-path="url(#a)" fill="#4054F9"><path d="M15.91 9.545a1.59 1.59 0 1 0 0-3.182 1.59 1.59 0 0 0 0 3.182ZM36.59 4.772H33.41c-2.705 0-4.773 2.069-4.773 4.773v4.773c0 3.5 2.864 6.364 6.364 6.364s6.363-2.864 6.363-6.364V9.545c0-2.704-2.068-4.773-4.772-4.773Zm1.592 9.546A3.191 3.191 0 0 1 35 17.5a3.191 3.191 0 0 1-3.182-3.182V9.545c0-.954.637-1.59 1.59-1.59h3.183c.954 0 1.59.636 1.59 1.59v4.773ZM39.773 23.863h-9.546c-4.454 0-7.954 3.5-7.954 7.955 0 .954.636 1.59 1.59 1.59.955 0 1.591-.636 1.591-1.59 0-2.705 2.069-4.773 4.773-4.773h9.546c2.704 0 4.772 2.068 4.772 4.773 0 .954.637 1.59 1.591 1.59.955 0 1.591-.636 1.591-1.59 0-4.455-3.5-7.955-7.954-7.955Z"/><path d="M60.455 0H9.545c-.954 0-1.59.636-1.59 1.59v35c0 .955.636 1.592 1.59 1.592h50.91c.954 0 1.59-.637 1.59-1.591v-35C62.045.636 61.41 0 60.455 0Zm-1.591 35H11.136V3.182h47.728V35ZM36.59 41.363H33.41c-2.705 0-4.773 2.068-4.773 4.773v4.773c0 3.5 2.864 6.363 6.364 6.363s6.363-2.863 6.363-6.363v-4.773c0-2.704-2.068-4.773-4.772-4.773Zm1.592 9.546A3.191 3.191 0 0 1 35 54.09a3.191 3.191 0 0 1-3.182-3.182v-4.773c0-.954.637-1.59 1.59-1.59h3.183c.954 0 1.59.636 1.59 1.59v4.773ZM38.182 60.454h-6.364c-4.454 0-7.954 3.5-7.954 7.955 0 .954.636 1.59 1.59 1.59h12.728c.954 0 1.59-.636 1.59-1.59 0-.955-.636-1.591-1.59-1.591H27.364c.636-1.91 2.386-3.182 4.454-3.182h6.364c2.704 0 4.773 2.068 4.773 4.773 0 .954.636 1.59 1.59 1.59.955 0 1.591-.636 1.591-1.59 0-4.455-3.5-7.955-7.954-7.955ZM60.455 41.363h-3.182c-2.705 0-4.773 2.068-4.773 4.773v4.773c0 3.5 2.864 6.363 6.364 6.363s6.363-2.863 6.363-6.363v-4.773c0-2.704-2.068-4.773-4.772-4.773Zm1.59 9.546a3.191 3.191 0 0 1-3.181 3.182 3.191 3.191 0 0 1-3.182-3.182v-4.773c0-.954.636-1.59 1.59-1.59h3.182c.955 0 1.591.636 1.591 1.59v4.773ZM62.045 60.454h-6.363c-4.455 0-7.955 3.5-7.955 7.955 0 .954.637 1.59 1.591 1.59h12.727c.955 0 1.591-.636 1.591-1.59 0-.955-.636-1.591-1.59-1.591H51.226c.637-1.91 2.387-3.182 4.455-3.182h6.363c2.705 0 4.773 2.068 4.773 4.773 0 .954.637 1.59 1.591 1.59S70 69.364 70 68.41c0-4.455-3.5-7.955-7.955-7.955ZM14.318 41.363h-3.181c-2.705 0-4.773 2.068-4.773 4.773v4.773c0 3.5 2.863 6.363 6.363 6.363 3.5 0 6.364-2.863 6.364-6.363v-4.773c0-2.704-2.068-4.773-4.773-4.773Zm1.591 9.546a3.191 3.191 0 0 1-3.182 3.182 3.191 3.191 0 0 1-3.182-3.182v-4.773c0-.954.637-1.59 1.591-1.59h3.182c.955 0 1.591.636 1.591 1.59v4.773ZM14.318 60.454H7.955C3.5 60.454 0 63.954 0 68.41c0 .954.636 1.59 1.59 1.59h12.728c.955 0 1.591-.636 1.591-1.59 0-.955-.636-1.591-1.59-1.591H3.5c.636-1.91 2.386-3.182 4.455-3.182h6.363c2.705 0 4.773 2.068 4.773 4.773 0 .954.636 1.59 1.59 1.59.955 0 1.592-.636 1.592-1.59 0-4.455-3.5-7.955-7.955-7.955Z"/></g><defs><clipPath id="a"><path fill="#fff" d="M0 0h70v70H0z"/></clipPath></defs></svg>
